icons/editor/text-align/right.svg

<svg width="32" height="32" viewBox="0 0 32 32" xmlns="http://www.w3.org/2000/svg">
    <path fill-rule="evenodd" d="M26 8H6V6h20v2zm0 6H12v-2h14v2zM6 20h20v-2H6v2zm20 6H12v-2h14v2z"/>
</svg>

<svg width="32" height="32" viewBox="0 0 32 32" fill="none" xmlns="http://www.w3.org/2000/svg">
<path fill-rule="evenodd" clip-rule="evenodd" d="M26 8H6V6H26V8ZM26 14H12V12H26V14ZM6 20H26V18H6V20ZM26 26H12V24H26V26Z" fill="black"/>
</svg>
